svgs/light/phone.svg

<svg xmlns="http://www.w3.org/2000/svg" viewBox="0 0 512 512"><!--! Font Awesome Pro 6.3.0 by @fontawesome - https://fontawesome.com License - https://fontawesome.com/license (Commercial License) Copyright 2023 Fonticons, Inc. --><path d="M484.6 330.6C484.6 330.6 484.6 330.6 484.6 330.6l-101.8-43.66c-18.5-7.688-40.2-2.375-52.75 13.08l-33.14 40.47C244.2 311.8 200.3 267.9 171.6 215.2l40.52-33.19c15.67-12.92 20.83-34.16 12.84-52.84L181.4 27.37C172.7 7.279 150.8-3.737 129.6 1.154L35.17 23.06C14.47 27.78 0 45.9 0 67.12C0 312.4 199.6 512 444.9 512c21.23 0 39.41-14.44 44.17-35.13l21.8-94.47C515.7 361.1 504.7 339.3 484.6 330.6zM457.9 469.7c-1.375 5.969-6.844 10.31-12.98 10.31c-227.7 0-412.9-185.2-412.9-412.9c0-6.188 4.234-11.48 10.34-12.88l94.41-21.91c1-.2344 2-.3438 2.984-.3438c5.234 0 10.11 3.094 12.25 8.031l43.58 101.7C197.9 147.2 196.4 153.5 191.8 157.3L141.3 198.7C135.6 203.4 133.8 211.4 137.1 218.1c33.38 67.81 89.11 123.5 156.9 156.9c6.641 3.313 14.73 1.531 19.44-4.219l41.39-50.5c3.703-4.563 10.16-6.063 15.5-3.844l101.6 43.56c5.906 2.563 9.156 8.969 7.719 15.22L457.9 469.7z"/></svg>

<svg xmlns="http://www.w3.org/2000/svg" viewBox="0 0 512 512"><!-- Font Awesome Pro 6.0.0-alpha2 by @fontawesome - https://fontawesome.com License - https://fontawesome.com/license (Commercial License) --><path d="M484.628 330.624C484.613 330.624 484.597 330.624 484.581 330.593L382.831 286.952C364.331 279.265 342.627 284.577 330.08 300.03L296.939 340.499C244.189 311.78 200.329 267.921 171.626 215.186L212.142 181.998C227.814 169.077 232.97 147.842 224.986 129.154L181.376 27.373C172.657 7.279 150.767 -3.737 129.563 1.154L35.172 23.06C14.469 27.779 0 45.904 0 67.123C0 312.437 199.564 512 444.878 512C466.112 512 484.284 497.562 489.05 476.875L510.847 382.406C515.738 361.093 504.706 339.312 484.628 330.624ZM457.862 469.687C456.487 475.656 451.019 480 444.878 480C217.22 480 32 294.78 32 67.123C32 60.935 36.235 55.639 42.344 54.248L136.751 32.342C137.751 32.107 138.751 31.998 139.735 31.998C144.97 31.998 149.845 35.092 151.985 40.029L195.564 141.733C197.923 147.248 196.392 153.498 191.814 157.28L141.313 198.655C135.563 203.374 133.813 211.421 137.095 218.092C170.47 285.905 226.205 341.624 294.033 374.999C300.674 378.312 308.768 376.531 313.471 370.781L354.862 320.28C358.565 315.718 365.018 314.218 370.362 316.437L471.941 359.999C477.847 362.562 481.097 368.968 479.659 375.218L457.862 469.687Z"/></svg>
